X:1
T: Lady Duff of Delgaty
C:William Marshall
R:Reel
Q: 232
K:Bb
M:4/4
L:1/8
|:G|FB, G/F/E/D/ FB, DB,|CD EF GC EG|FB, G/F/E/D/ FB, DF|GB Ac dB B2|
FB, G/F/E/D/ FB, DB,|CD EF GC EG|FB, G/F/E/D/ FB, DF|GB Ac dB B2|
df Bf df e/f/d/c/|eg cf eg ab|df Bf df e/d/c/B/|GB Ac dB Bf|
df Bf df e/f/d/c/|eg cf eg ab|fb fd ge cd|FG AB dB B:|
